X:18418
T:Waltz of the 3rd Dragoon Guards. CJF.043
T:3rd Dragoon Guards Waltz. CJF.043
M:3/8
L:1/16
Q:50
S: C.J.Fox MS, 1829/33, Beverley,E.Yorks.
R:Waltz
O:England
A:East Yorkshire
B:Kidson Coll.Mitchell Lib.M1805
N:The MS has a repeat at the start of section 3 - PJH.
Z:P J Headford 2000
K:G
(Bc).d2.d2|(dg)(dc).B.d|(dc) A2F2|GBd4|(Bc).d2.d2|\
(dg)(dc).B.d|(dc) A2F2|(GB)G4:|:!g2g2b2|a2a2c'2|(FA)(df) (ac')|
b2g2g2|g2g2b2|a2a2c'2|(FA)(df) (af)|gbg4:|!(Bc)(dg)(fe)|\
(ed)d4|(AB)(ce).d.c|cBB4|(Bc).d(gf).e|(ed)d4|(AB).c(ed).c|
BAG4|!b2g2d2|c'4a2|(c'a)(af)(fd)|bggddB|b2g2d2|c'4a2|(c'a)(af)(fd)|gbg4|
|


